static/img/kroki/7ed868758530a44fc10b718e70ebf357.svg

<?xml version="1.0" encoding="us-ascii" standalone="no"?><svg xmlns="http://www.w3.org/2000/svg" xmlns:xlink="http://www.w3.org/1999/xlink" contentStyleType="text/css" height="352px" preserveAspectRatio="none" style="width:482px;height:352px;" version="1.1" viewBox="0 0 482 352" width="482px" zoomAndPan="magnify"><defs/><g><!--class aws_api_gateway_authorizer--><g id="elem_aws_api_gateway_authorizer"><rect codeLine="22" fill="#3D176E" height="39.7891" id="aws_api_gateway_authorizer" rx="2.5" ry="2.5" style="stroke:#000D19;stroke-width:0.5;" width="285" x="7" y="206.58"/><ellipse cx="22" cy="226.4745" fill="#ADD1B2" rx="11" ry="11" style="stroke:#181818;stroke-width:1.0;"/><path d="M24.9688,232.1152 Q24.3906,232.412 23.75,232.5527 Q23.1094,232.7089 22.4063,232.7089 Q19.9063,232.7089 18.5781,231.0683 Q17.2656,229.412 17.2656,226.287 Q17.2656,223.162 18.5781,221.5058 Q19.9063,219.8495 22.4063,219.8495 Q23.1094,219.8495 23.75,220.0058 Q24.4063,220.162 24.9688,220.4589 L24.9688,223.1777 Q24.3438,222.5995 23.75,222.3339 Q23.1563,222.0527 22.5313,222.0527 Q21.1875,222.0527 20.5,223.1308 Q19.8125,224.1933 19.8125,226.287 Q19.8125,228.3808 20.5,229.4589 Q21.1875,230.5214 22.5313,230.5214 Q23.1563,230.5214 23.75,230.2558 Q24.3438,229.9745 24.9688,229.3964 L24.9688,232.1152 Z " fill="#000000"/><text fill="#D9B8FF" font-family="Helvetica" font-size="17" lengthAdjust="spacing" textLength="243" x="41" y="232.3598">aws_api_gateway_authorizer</text></g><!--class aws_api_gateway_resource--><g id="elem_aws_api_gateway_resource"><rect codeLine="24" fill="#3D176E" height="39.7891" id="aws_api_gateway_resource" rx="2.5" ry="2.5" style="stroke:#000D19;stroke-width:0.5;" width="270" x="147.5" y="106.79"/><ellipse cx="162.5" cy="126.6845" fill="#ADD1B2" rx="11" ry="11" style="stroke:#181818;stroke-width:1.0;"/><path d="M165.4688,132.3252 Q164.8906,132.622 164.25,132.7627 Q163.6094,132.9189 162.9063,132.9189 Q160.4063,132.9189 159.0781,131.2783 Q157.7656,129.622 157.7656,126.497 Q157.7656,123.372 159.0781,121.7158 Q160.4063,120.0595 162.9063,120.0595 Q163.6094,120.0595 164.25,120.2158 Q164.9063,120.372 165.4688,120.6689 L165.4688,123.3877 Q164.8438,122.8095 164.25,122.5439 Q163.6563,122.2627 163.0313,122.2627 Q161.6875,122.2627 161,123.3408 Q160.3125,124.4033 160.3125,126.497 Q160.3125,128.5908 161,129.6689 Q161.6875,130.7314 163.0313,130.7314 Q163.6563,130.7314 164.25,130.4658 Q164.8438,130.1845 165.4688,129.6064 L165.4688,132.3252 Z " fill="#000000"/><text fill="#D9B8FF" font-family="Helvetica" font-size="17" lengthAdjust="spacing" textLength="228" x="181.5" y="132.5698">aws_api_gateway_resource</text></g><!--class aws_api_gateway_rest_api--><g id="elem_aws_api_gateway_rest_api"><rect codeLine="26" fill="#3D176E" height="39.7891" id="aws_api_gateway_rest_api" rx="2.5" ry="2.5" style="stroke:#000D19;stroke-width:0.5;" width="265" x="150" y="7"/><ellipse cx="165" cy="26.8945" fill="#ADD1B2" rx="11" ry="11" style="stroke:#181818;stroke-width:1.0;"/><path d="M167.9688,32.5352 Q167.3906,32.832 166.75,32.9727 Q166.1094,33.1289 165.4063,33.1289 Q162.9063,33.1289 161.5781,31.4883 Q160.2656,29.832 160.2656,26.707 Q160.2656,23.582 161.5781,21.9258 Q162.9063,20.2695 165.4063,20.2695 Q166.1094,20.2695 166.75,20.4258 Q167.4063,20.582 167.9688,20.8789 L167.9688,23.5977 Q167.3438,23.0195 166.75,22.7539 Q166.1563,22.4727 165.5313,22.4727 Q164.1875,22.4727 163.5,23.5508 Q162.8125,24.6133 162.8125,26.707 Q162.8125,28.8008 163.5,29.8789 Q164.1875,30.9414 165.5313,30.9414 Q166.1563,30.9414 166.75,30.6758 Q167.3438,30.3945 167.9688,29.8164 L167.9688,32.5352 Z " fill="#000000"/><text fill="#D9B8FF" font-family="Helvetica" font-size="17" lengthAdjust="spacing" textLength="223" x="184" y="32.7798">aws_api_gateway_rest_api</text></g><!--class aws_lambda_function--><g id="elem_aws_lambda_function"><rect codeLine="28" fill="#3D176E" height="39.7891" id="aws_lambda_function" rx="2.5" ry="2.5" style="stroke:#000D19;stroke-width:0.5;" width="224" x="232.5" y="306.37"/><ellipse cx="247.5" cy="326.2645" fill="#ADD1B2" rx="11" ry="11" style="stroke:#181818;stroke-width:1.0;"/><path d="M250.4688,331.9052 Q249.8906,332.202 249.25,332.3427 Q248.6094,332.4989 247.9063,332.4989 Q245.4063,332.4989 244.0781,330.8583 Q242.7656,329.202 242.7656,326.077 Q242.7656,322.952 244.0781,321.2958 Q245.4063,319.6395 247.9063,319.6395 Q248.6094,319.6395 249.25,319.7958 Q249.9063,319.952 250.4688,320.2489 L250.4688,322.9677 Q249.8438,322.3895 249.25,322.1239 Q248.6563,321.8427 248.0313,321.8427 Q246.6875,321.8427 246,322.9208 Q245.3125,323.9833 245.3125,326.077 Q245.3125,328.1708 246,329.2489 Q246.6875,330.3114 248.0313,330.3114 Q248.6563,330.3114 249.25,330.0458 Q249.8438,329.7645 250.4688,329.1864 L250.4688,331.9052 Z " fill="#000000"/><text fill="#D9B8FF" font-family="Helvetica" font-size="17" lengthAdjust="spacing" textLength="182" x="266.5" y="332.1498">aws_lambda_function</text></g><!--link aws_api_gateway_authorizer to aws_lambda_function--><g id="link_aws_api_gateway_authorizer_aws_lambda_function"><path codeLine="30" d="M188.03,246.8 C220.48,263.07 266.89,286.34 300.73,303.32 " fill="none" id="aws_api_gateway_authorizer-to-aws_lambda_function" style="stroke:#1A83AF;stroke-width:2.0;"/><polygon fill="#1A83AF" points="305.05,305.99,298.7987,298.3794,300.5807,303.7482,295.2119,305.5302,305.05,305.99" style="stroke:#1A83AF;stroke-width:2.0;"/></g><!--link aws_api_gateway_resource to aws_api_gateway_authorizer--><g id="link_aws_api_gateway_resource_aws_api_gateway_authorizer"><path codeLine="31" d="M256.22,147.01 C234.46,163.01 203.48,185.79 180.5,202.69 " fill="none" id="aws_api_gateway_resource-to-aws_api_gateway_authorizer" style="stroke:#1A83AF;stroke-width:2.0;"/><polygon fill="#1A83AF" points="176.72,206.2,186.3373,204.0768,180.7438,203.2321,181.5886,197.6386,176.72,206.2" style="stroke:#1A83AF;stroke-width:2.0;"/></g><!--link aws_api_gateway_resource to aws_lambda_function--><g id="link_aws_api_gateway_resource_aws_lambda_function"><path codeLine="32" d="M289.39,147.06 C294.99,162.99 303,186.17 309.5,206.58 C319.82,238.99 330.76,276.7 337.61,300.76 " fill="none" id="aws_api_gateway_resource-to-aws_lambda_function" style="stroke:#1A83AF;stroke-width:2.0;"/><polygon fill="#1A83AF" points="339.17,305.28,340.5513,295.5285,337.8002,300.4713,332.8573,297.7202,339.17,305.28" style="stroke:#1A83AF;stroke-width:2.0;"/></g><!--link aws_api_gateway_rest_api to aws_api_gateway_authorizer--><g id="link_aws_api_gateway_rest_api_aws_api_gateway_authorizer"><path codeLine="33" d="M209.07,47.25 C178.95,59.2 147.08,77.96 129.5,106.79 C111.83,135.78 124.64,175.77 136.36,201.12 " fill="none" id="aws_api_gateway_rest_api-to-aws_api_gateway_authorizer" style="stroke:#1A83AF;stroke-width:2.0;"/><polygon fill="#1A83AF" points="138.83,205.3,138.5841,195.4542,136.6859,200.7831,131.357,198.8848,138.83,205.3" style="stroke:#1A83AF;stroke-width:2.0;"/></g><!--link aws_api_gateway_rest_api to aws_api_gateway_resource--><g id="link_aws_api_gateway_rest_api_aws_api_gateway_resource"><path codeLine="34" d="M282.5,47.22 C282.5,62.49 282.5,83.92 282.5,100.53 " fill="none" id="aws_api_gateway_rest_api-to-aws_api_gateway_resource" style="stroke:#1A83AF;stroke-width:2.0;"/><polygon fill="#1A83AF" points="282.5,105.41,286.5,96.41,282.5,100.41,278.5,96.41,282.5,105.41" style="stroke:#1A83AF;stroke-width:2.0;"/></g><!--link aws_api_gateway_rest_api to aws_lambda_function--><g id="link_aws_api_gateway_rest_api_aws_lambda_function"><path codeLine="35" d="M355.93,47.25 C386.05,59.2 417.92,77.96 435.5,106.79 C475.83,172.97 407.33,260.24 368.47,301.59 " fill="none" id="aws_api_gateway_rest_api-to-aws_lambda_function" style="stroke:#1A83AF;stroke-width:2.0;"/><polygon fill="#1A83AF" points="365.35,304.92,374.4538,301.1623,368.7986,301.2997,368.6613,295.6445,365.35,304.92" style="stroke:#1A83AF;stroke-width:2.0;"/></g><!--SRC=[fP31Qi9048RlFiM2Py5KMlLIY8Aq5ocrjrB293jh5fFTC3jfiANlNgErf8c9Igyptyp_pSHQei0quwr8CGsHNCzjjCc081K-aItcDh4a-ag16ethpOKrV1POGehY0PDtP1r1dNY9TRGnw9ougRHc46tMP7CZ3-kPmBXT2mrNg7a2pldCfCESiI8Zf-54gJfPNzeVIMzyXmtCaaJwGOR3eVIcTUHiLEVTlyHAVw3mgazRMiQ6PYDYJtLQbaH5id7eiT_g-0HIQhCMjvNQyy693DAV-Ye6QOkILf2uQenZ9BIypN3Uk0gd4wd69-77DZWgFoUWS05aEbW3Om7R07AEBUr-IUApzzK24JgRKuJT29U56f906ae8L6uYrjRiknqAWzU-vqz6_k9jS7zgljTgrfWydN35WWkY3nV_8_g21KV1AyPhvjy0]--></g></svg>

<svg xmlns="http://www.w3.org/2000/svg" width="482" height="352" preserveAspectRatio="none" style="width:482px;height:352px"><rect width="285" height="39.789" x="7" y="206.58" fill="#3D176E" rx="2.5" ry="2.5" style="stroke:#000d19;stroke-width:.5"/><circle cx="22" cy="226.475" r="11" fill="#ADD1B2" style="stroke:#181818;stroke-width:1"/><path d="M24.969 232.115q-.578.297-1.219.438-.64.156-1.344.156-2.5 0-3.828-1.64-1.312-1.657-1.312-4.782t1.312-4.781q1.328-1.656 3.828-1.656.703 0 1.344.156.656.156 1.219.453v2.719q-.625-.578-1.219-.844-.594-.281-1.219-.281-1.343 0-2.031 1.078-.688 1.062-.688 3.156 0 2.094.688 3.172.688 1.062 2.031 1.062.625 0 1.219-.265.594-.281 1.219-.86v2.72Z"/><text x="41" y="232.36" fill="#D9B8FF" font-family="Helvetica" font-size="17" textLength="243">aws_api_gateway_authorizer</text><rect width="270" height="39.789" x="147.5" y="106.79" fill="#3D176E" rx="2.5" ry="2.5" style="stroke:#000d19;stroke-width:.5"/><circle cx="162.5" cy="126.684" r="11" fill="#ADD1B2" style="stroke:#181818;stroke-width:1"/><path d="M165.469 132.325q-.578.297-1.219.438-.64.156-1.344.156-2.5 0-3.828-1.64-1.312-1.657-1.312-4.782t1.312-4.781q1.328-1.656 3.828-1.656.703 0 1.344.156.656.156 1.219.453v2.719q-.625-.579-1.219-.844-.594-.281-1.219-.281-1.344 0-2.031 1.078-.688 1.062-.688 3.156 0 2.094.688 3.172.688 1.062 2.031 1.062.625 0 1.219-.265.594-.281 1.219-.86v2.72Z"/><text x="181.5" y="132.57" fill="#D9B8FF" font-family="Helvetica" font-size="17" textLength="228">aws_api_gateway_resource</text><rect width="265" height="39.789" x="150" y="7" fill="#3D176E" rx="2.5" ry="2.5" style="stroke:#000d19;stroke-width:.5"/><circle cx="165" cy="26.895" r="11" fill="#ADD1B2" style="stroke:#181818;stroke-width:1"/><path d="M167.969 32.535q-.578.297-1.219.438-.64.156-1.344.156-2.5 0-3.828-1.64-1.312-1.657-1.312-4.782t1.312-4.781q1.328-1.656 3.828-1.656.703 0 1.344.156.656.156 1.219.453v2.719q-.625-.578-1.219-.844-.594-.281-1.219-.281-1.344 0-2.031 1.078-.688 1.062-.688 3.156 0 2.094.688 3.172.688 1.062 2.031 1.062.625 0 1.219-.265.594-.281 1.219-.86v2.72Z"/><text x="184" y="32.78" fill="#D9B8FF" font-family="Helvetica" font-size="17" textLength="223">aws_api_gateway_rest_api</text><rect width="224" height="39.789" x="232.5" y="306.37" fill="#3D176E" rx="2.5" ry="2.5" style="stroke:#000d19;stroke-width:.5"/><circle cx="247.5" cy="326.264" r="11" fill="#ADD1B2" style="stroke:#181818;stroke-width:1"/><path d="M250.469 331.905q-.578.297-1.219.438-.64.156-1.344.156-2.5 0-3.828-1.64-1.312-1.657-1.312-4.782t1.312-4.781q1.328-1.656 3.828-1.656.703 0 1.344.156.656.156 1.219.453v2.719q-.625-.579-1.219-.844-.594-.281-1.219-.281-1.344 0-2.031 1.078-.688 1.062-.688 3.156 0 2.094.688 3.172.688 1.062 2.031 1.062.625 0 1.219-.265.594-.281 1.219-.86v2.72Z"/><text x="266.5" y="332.15" fill="#D9B8FF" font-family="Helvetica" font-size="17" textLength="182">aws_lambda_function</text><path fill="none" d="M188.03 246.8c32.45 16.27 78.86 39.54 112.7 56.52" style="stroke:#1a83af;stroke-width:2"/><path fill="#1A83AF" d="m305.05 305.99-6.251-7.61 1.782 5.368-5.37 1.782 9.839.46z" style="stroke:#1a83af;stroke-width:2"/><path fill="none" d="M256.22 147.01c-21.76 16-52.74 38.78-75.72 55.68" style="stroke:#1a83af;stroke-width:2"/><path fill="#1A83AF" d="m176.72 206.2 9.617-2.123-5.593-.845.845-5.593-4.869 8.561z" style="stroke:#1a83af;stroke-width:2"/><path fill="none" d="M289.39 147.06c5.6 15.93 13.61 39.11 20.11 59.52 10.32 32.41 21.26 70.12 28.11 94.18" style="stroke:#1a83af;stroke-width:2"/><path fill="#1A83AF" d="m339.17 305.28 1.381-9.751-2.75 4.942-4.944-2.75 6.313 7.559z" style="stroke:#1a83af;stroke-width:2"/><path fill="none" d="M209.07 47.25c-30.12 11.95-61.99 30.71-79.57 59.54-17.67 28.99-4.86 68.98 6.86 94.33" style="stroke:#1a83af;stroke-width:2"/><path fill="#1A83AF" d="m138.83 205.3-.246-9.846-1.898 5.33-5.329-1.9 7.473 6.416z" style="stroke:#1a83af;stroke-width:2"/><path fill="none" d="M282.5 47.22v53.31" style="stroke:#1a83af;stroke-width:2"/><path fill="#1A83AF" d="m282.5 105.41 4-9-4 4-4-4 4 9z" style="stroke:#1a83af;stroke-width:2"/><path fill="none" d="M355.93 47.25c30.12 11.95 61.99 30.71 79.57 59.54 40.33 66.18-28.17 153.45-67.03 194.8" style="stroke:#1a83af;stroke-width:2"/><path fill="#1A83AF" d="m365.35 304.92 9.104-3.758-5.655.138-.138-5.656-3.311 9.276z" style="stroke:#1a83af;stroke-width:2"/></svg>
